!!!COM: Gabriel Faure/
!!!CNT: Francais
!!!TXO: Francais
!!!OTL: Aubade
!!!OPS: Op. 6
!!!ONM: No. 1
!!!LYR: Louis Pommey
!!!ENC: Jacob Pegg
!!!YOR: Album of Twenty Songs (Vingt Me/lodies,) Volume I
!!!YOR: Edward B. Marks Music Corporation, RCA Building, Radio
!!!YOR: City, New York 20, N.Y.
!!!ODT: 1873/
!!NB: Vocal melody and text only encoded.
!!NB: First instance of melodic material only encoded.
**kern	**silbe
*clef G2	*
*k[f#]	*
*M12/8	*
*MM[moderato]	*
!! allegretto moderato quasi andante
!!created: 8/21/03 20:45
!!proofed and posted: 8/21/03 21:51
!!edit time: 26 min.
=1	=1
2r	.
2r	.
2r	.
=2	=2
2.r	.
4.r	.
8r	.
8r	.
{8b	{L'oi-
=3	=3
[4.b	-seau
4b]	|
8b	dans
4cc	le
8cc	buis-
4dd	-son
8dd	A
=4	=4
4ee	sa-
8ee	-lu-
(8dd	-e/
8cc)	|
8b	l'au-
4.a	-ro-
8a}	-re,}
8r	.
8r	.
=5	=5
{4a	{Et
8a	d'un
4.b-	pa^-
4cc	-le
8cc	ra-
4.dd	-yon
=6	=6
4dd	L'ho-
8cc	-ri-
8bn	-zon
8a	se
8g	co-
4.a	-lo-
8g}	-re,}
8r	.
{8a	{Voi-
=7	=7
4a	-ci
8cc	le
4cc	frais
8ffn	ma-
[4.ffn	-tin!
8ffn]}	|}
8r	.
{8dd	{Pour
=8	=8
4cc	voir
8cc	les
(8cc	fleurs
8b)	|
8a	a\
(8b	la
8a)	|
8g	lu-
4dd	-mie\-
8dd}	-re,}
=9	=9
{4cc	{S'ou-
8b	-vrir
8a	de
8b	tou-
8cc	-te
[4.dd	part
8dd]}	|}
8r	.
{8dd	{En-
=10	=10
4ffn	-tr'ou-
8ffn	-vre
(8ee	ta
8dd)	|
8cc	pau-
4.b	-pie\-
8b}	-re,}
8r	.
{8b	{O
=11	=11
[2.dd	vier-
4dd]	|
8dd	-ge au
(8cc	doux
8b)	|
8a	re-
=12	=12
(4.gg	-gard!
2.dd)}	|}
{4.dd#	{O
=13	=13
[2.ee	vier-
4ee]	|
8ddn	-ge au
(8cc	doux
8b)	|
8cc	re-
=14	=14
(4.dd	-gard!
2.g)}	|}
4r	.
8r	.
*-	*-
